X: 3
T: Farewell To Erin
R: reel
M: 4/4
L: 1/8
K: Emix
E3 G B3 c | dBAF DFAF | E3 G B3 c | dBAc BEED |E3 G B3 c | dBAF A2 d'2 | babd' e'2 f'e' | d'baf FE E2 :|


Tune 33	Setting 12433

